packages/kaspersky-hexa-ui-icons/src/iconsSVGs/16/StatusQuestionSolid.svg

<svg width="16" height="16" viewBox="0 0 16 16" fill="none" xmlns="http://www.w3.org/2000/svg">
<path fill-rule="evenodd" clip-rule="evenodd" d="M8 15C11.866 15 15 11.866 15 8C15 4.13401 11.866 1 8 1C4.13401 1 1 4.13401 1 8C1 11.866 4.13401 15 8 15ZM7.95619 5.49414C7.48365 5.49414 7.10059 5.87721 7.10059 6.34975C7.10059 6.76396 6.7648 7.09975 6.35059 7.09975C5.93637 7.09975 5.60059 6.76396 5.60059 6.34975C5.60059 5.04878 6.65523 3.99414 7.95619 3.99414H8.00016C9.32541 3.99414 10.3997 5.06847 10.3997 6.39372V6.45509C10.3997 7.41804 9.8381 8.29252 8.96241 8.69306L8.75016 8.79013C8.74966 9.20392 8.41407 9.5392 8.00016 9.5392C7.58595 9.5392 7.25016 9.20342 7.25016 8.7892C7.25016 8.20283 7.59216 7.67033 8.1254 7.42644L8.33849 7.32897C8.68043 7.17257 8.89974 6.8311 8.89974 6.45509V6.39372C8.89974 5.89689 8.49699 5.49414 8.00016 5.49414H7.95619ZM8.75 11.075C8.75 11.4892 8.41421 11.825 8 11.825C7.58579 11.825 7.25 11.4892 7.25 11.075C7.25 10.6607 7.58579 10.325 8 10.325C8.41421 10.325 8.75 10.6607 8.75 11.075Z" fill="black"/>
</svg>

<svg xmlns="http://www.w3.org/2000/svg" width="16" height="16" fill="none" viewBox="0 0 16 16"><path fill="#000" fill-rule="evenodd" d="M8 15c3.866 0 7-3.134 7-7s-3.134-7-7-7-7 3.134-7 7 3.134 7 7 7m-.0438-9.5059a.8556.8556 0 0 0-.8556.8556.75.75 0 0 1-1.5 0c0-1.301 1.0546-2.3556 2.3556-2.3556h.044c1.3252 0 2.3995 1.0744 2.3995 2.3996v.0614a2.461 2.461 0 0 1-1.4373 2.238l-.2122.097a.75.75 0 0 1-1.5-.0009c0-.5864.342-1.1189.8752-1.3628l.213-.0974a.961.961 0 0 0 .5613-.874v-.0613a.8996.8996 0 0 0-.8995-.8996zM8.75 11.075a.75.75 0 1 1-1.5 0 .75.75 0 0 1 1.5 0"/></svg>
